X:280
T: Sean Coughlan's #2
S: "Show the Lady" (B.Begley / G.Bevan)
Z: R.Gagne (ID P.Varlet) [via IRTRAD]
L: 1/8
M: 6/8
R: jig
K: G
G2A BGG | ABB d2e | ged BGG | AGA BGE |
G2A BGG | ABB d2e | ged BGG |1 AGF G2D :|2\
AGF GBd ||
g2g gfg | agf def | ged BGG | AGE GED |
G2A BGG | ABB d2e | ged BGG |1 AGF GBd :|2\
AGF G2D ||
